packages/ui-icons/src/Basic/32/Home-internet_32.svg

<svg xmlns="http://www.w3.org/2000/svg" viewBox="0 0 40 40"><path d="M8 30h11v4h-7v2h16v-2h-7v-4h11a4 4 0 0 0 4-4V10a4 4 0 0 0-4-4H8a4 4 0 0 0-4 4v16a4 4 0 0 0 4 4ZM6 10a2 2 0 0 1 2-2h24a2 2 0 0 1 2 2v16a2 2 0 0 1-2 2H8a2 2 0 0 1-2-2Zm6 8a2 2 0 1 1 2 2 2 2 0 0 1-2-2Zm6 0a2 2 0 1 1 2 2 2 2 0 0 1-2-2Zm6 0a2 2 0 1 1 2 2 2 2 0 0 1-2-2Z"/></svg>

<svg id="Ready" xmlns="http://www.w3.org/2000/svg" viewBox="0 0 40 40"><title>Megaicons_work_32_1.8_cp</title><path d="M8,30H19v4H12v2H28V34H21V30H32a4,4,0,0,0,4-4V10a4,4,0,0,0-4-4H8a4,4,0,0,0-4,4V26A4,4,0,0,0,8,30ZM6,10A2,2,0,0,1,8,8H32a2,2,0,0,1,2,2V26a2,2,0,0,1-2,2H8a2,2,0,0,1-2-2Zm6,8a2,2,0,1,1,2,2A2,2,0,0,1,12,18Zm6,0a2,2,0,1,1,2,2A2,2,0,0,1,18,18Zm6,0a2,2,0,1,1,2,2A2,2,0,0,1,24,18Z"/></svg>
